storage/app/icons/phosphoricons/light/screencast-light.svg

<svg xmlns="http://www.w3.org/2000/svg" fill="currentColor" viewBox="0 0 256 256"><path d="M230 56v144a14 14 0 0 1-14 14h-72a6 6 0 0 1 0-12h72a2 2 0 0 0 2-2V56a2 2 0 0 0-2-2H40a2 2 0 0 0-2 2v40a6 6 0 0 1-12 0V56a14 14 0 0 1 14-14h176a14 14 0 0 1 14 14M32 186a6 6 0 0 0 0 12 10 10 0 0 1 10 10 6 6 0 0 0 12 0 22 22 0 0 0-22-22m0-32a6 6 0 0 0 0 12 42 42 0 0 1 42 42 6 6 0 0 0 12 0 54.06 54.06 0 0 0-54-54m0-32a6 6 0 0 0 0 12 74.09 74.09 0 0 1 74 74 6 6 0 0 0 12 0 86.1 86.1 0 0 0-86-86"/></svg>

<svg xmlns="http://www.w3.org/2000/svg" viewBox="0 0 256 256" fill="currentColor"><path d="M230,56V200a14,14,0,0,1-14,14H144a6,6,0,0,1,0-12h72a2,2,0,0,0,2-2V56a2,2,0,0,0-2-2H40a2,2,0,0,0-2,2V96a6,6,0,0,1-12,0V56A14,14,0,0,1,40,42H216A14,14,0,0,1,230,56ZM32,186a6,6,0,0,0,0,12,10,10,0,0,1,10,10,6,6,0,0,0,12,0A22,22,0,0,0,32,186Zm0-32a6,6,0,0,0,0,12,42,42,0,0,1,42,42,6,6,0,0,0,12,0A54.06,54.06,0,0,0,32,154Zm0-32a6,6,0,0,0,0,12,74.09,74.09,0,0,1,74,74,6,6,0,0,0,12,0A86.1,86.1,0,0,0,32,122Z"/></svg>
